shared/images/iconfont/50-kb-iconfont-identity-pgp-16.svg

<svg height="16" viewBox="0 0 16 16" width="16" xmlns="http://www.w3.org/2000/svg"><path d="m5.684 12.488 1.17-1.17-1.17-1.171-1.17 1.17 1.17 1.17zm-.001 2.341-2.343-2.339-1.17 1.17 2.342 2.34 1.17-1.17zm6.829-11.512-2.34 2.342 2.145 2.146 2.342-2.342-.976-.975.975-.976-3.511-3.512-.976.976 2.341 2.34zm-3.512 1.17 2.34-2.34-2.144-2.147-2.343 2.341.976.976-.975.976 1.17 1.17-7.024 7.025 1.17 1.17 7.025-7.024 1.17 1.17.976-.975-2.341-2.341z" fill-rule="evenodd"/></svg>

<svg xmlns="http://www.w3.org/2000/svg" width="16" height="16" viewBox="0 0 16 16">
    <path fill="#000" fill-rule="evenodd" d="M5.684 12.488l1.17-1.17-1.17-1.171-1.17 1.17 1.17 1.17zm-.001 2.341L3.34 12.49l-1.17 1.17L4.512 16l1.17-1.17zm6.829-11.512l-2.34 2.342 2.145 2.146 2.342-2.342-.976-.975.975-.976L11.147 0l-.976.976 2.341 2.34v.001zM9 4.487l2.34-2.34L9.196 0 6.853 2.341l.976.976-.975.976 1.17 1.17L1 12.488l1.17 1.17 7.025-7.024 1.17 1.17.976-.975L9 4.488z"/>
</svg>
